X:1
T:Bagatelle
T:[Friss - Gordonkaiskola II]
T:W. A. Mozart (1756 - 1791)
T:Copyright 1967 by Editio Musica Budapest Z. 5240
T:Copyright 1967 by Editio Musica Budapest Z. 5240
T:Copyright 1967 by Editio Musica Budapest Z. 5240
Z:Copyright 1967 by Editio Musica Budapest Z. 5240
%%score 1 { ( 2 6 7 ) | ( 3 4 5 ) }
L:1/8
M:none
K:G
V:1 bass nm="Violoncello" snm="Vlc."
V:2 treble nm="Piano" snm="Pno."
V:6 treble 
V:7 treble 
V:3 bass 
V:4 bass 
V:5 bass 
V:1
 x6 | x4 |:[Q:1/4=110][Q:1/4=110]!mf!"^(2da volta p )"[Q:1/4=112]"^Moderato" DC | (B,3 C)A,B, | %4
 G,3 A,F,G, | (E,2 C2) .B,2 | (B,A,G,)(.D.^C.=C) | (B,^A,.B,).C.=A,.B, | (G,F,G,).A,F,G, | %9
 (E,2 A,2) .F,2 | G,2 z2 ::!mf! .B,.G, | .F,.A, C2 .A,.F, | .G,.B, D2!p! .B,.G, | %14
 (F,A,.C).A,.C.A, | .G,.B, D2!f! DC | (B,3 C)A,B, | (G,3 A,)F,G, | (E,2!>(! A,2) .F,2!>)! | %19
 G,2 z2 :: z2 |"^pizz." [F,A,]2 [F,A,]2 z2 | [G,B,]2 [G,B,]2 z2 | z2 [E,C]2 [G,C]2 | [G,B,]4 z2 | %25
!mf! [F,A,]2 [F,A,]2 z2 | [G,B,]2 [G,B,]2 z2 | z2 [E,C]2 [F,C]2 | [G,B,]4 :: z2 | %30
 z2 z2"^arco"!f! [D,C]2 | [D,B,]2 [D,A,]2 z2 | z2 z2 [D,C]2 | [D,B,]2 [D,A,]2 z2 | %34
"^pizz."!p! [F,A,]2 [F,A,]2 z2 | [G,B,]2 [G,B,]2 z2 | z2 [E,C]2 [F,C]2 | [G,B,]4 z2 :| %38
"^arco"!p! DC | (B,3 C)A,B, | G,3 A,F,G, | (E,2 C2) .B,2 | (B,A,G,)(.D.^C.=C) | %43
 (B,^A,.B,).C.=A,.B, | (G,F,G,).A,.F,.G, | (G,2 A,2) .F,2 | G,2 z2!mf! .B,.G, | .F,.A, C2 .A,.F, | %48
 .G,.B, D2!p! .B,.G, | (F,A,).C.A,.C.A, | .G,.B, D2 DC | (B,3 C)A,B, | (G,3 A,)F,G, | %53
 (E,2!>(! A,2) .F,2!>)! | G,2 z2 |] %55
V:2
!ff! !>!.x2!p! .x2 .x2 |!ff! !>!.x2!p! .x2 |: z2 | z2 x4 | z2 x4 | z2 [F,CD]2 [B,D]2 | z2 [F,A,]4 | %7
 z2 [DGB]2 [DFA]2 | z2 [Beg]2 [Bdf]2 | z2 [cea]2 [cdf]2 | [Bdg]2 z2 :: z2 | %12
!mf!!mf!!mf! [DFd]4 [DFd]2 | [DGd]4 z2 | x6 | x4 BA | (G2 F2 (B,2 | B,2) D2 G,2) | z2 [A,C]2 C2 | %19
 [G,B,]2 z2 ::!p! (A/G/F/G/) |!<(! .[FA]2 .[FA]2 (B/A/G/A/)!<)! | .[GB]2 .[GB]2 (c/B/A/B/) | %23
 c2 ((([Gc]2 [Gce]2))) |!mf! [GBd]4 (a/g/f/g/) |!<(! .[da]2 .[da]2 (b/a/g/a/) | %26
 .[db]2 .[db]2 (c'/b/a/!<)!b/) | (c'd').e'.c'.a.f | [dg]4 ::!p! (e/d/^c/d/) | A2 A2!f! [DAc]2 | %31
 [DGB]2 [DFA]2!p! (e/d/^c/d/) | A2 A2!f! [dac']2 | [dgb]2 [dfa]2!p! (a/g/f/g/) | %34
 .[da]2 .[da]2!<(! (b/a/g/a/) | .[db]2 .[db]2 (c'/b/a/!<)!b/) | (c'd').e'.c'.a.f | g4 z2 :| z2 | %39
 z2 [DGd]2 [Fcd]2 | z2 [B,EB]2 [DFB]2 | z2 [CF]2 G2 | z2 ([DF]2 d2) | z2 [GB]2 [FA]2 | %44
 z2 [EG]2 [DF]2 | z2 [CEA]2 [CDF]2 | [B,DG]2 z2 z2 | [DFd]4 [DFd]2 | [DGd]4 z2 | z6 | x4!f! (BA | %51
 G2 F2 (B,2 | B,2) D2 G,2) | z2 [A,C]2 C2 | [G,B,]2 z2 |] %55
V:3
 x2 x4 | x4 |: z2 |!mf!"^(2da volta p )" x2 (G,2 F,2) | x2 (E,2 D,2) | C,2 A,,2 G,,2 | D,4 D,,2 | %7
 (G,4 D,2 | E,4 B,,2 | C,2) A,,2 D,2 | G,,2 G,2 :: z2 | [D,C]4 [D,C]2 | [D,B,]4 z2 | %14
!p! [D,F,D]4 [D,F,D]2 | [D,G,D]4 z2 | G,2 ^D,4 | E,2 B,,4 | C,2!>(! E,2 F,2 | G,,2!>)! G,,,2 :: %20
 z2 | .[D,D]2 .[D,D]2 z2 | .[G,D]2 .[G,D]2 z2 | z2 (E,2 C,2) | G,,2 G,2 z2 | .[A,DF]2 .[A,DF]2 z2 | %26
 .[B,G]2 .[B,G]2 z2 | z2 [CEG]2 z2 | z2 G,,2 :: z2 | z2 z2 [F,,F,]2 | [G,,G,]2 [D,,D,]2 z2 | %32
 z2 z2 [F,D]2 | [G,D]2 [D,D]2 z2 | .[D,C]2 .[D,C]2 z2 | .[G,B,]2 .[G,B,]2 z2 | %36
 C,2 [A,C]2 [D,A,C]2 | [G,B,]2 G,,2 z2 :| z2 |!p! ([G,,D,]G, B,2) D,2 | [E,,B,,]E, G,2 D,2 | %41
 C,2 A,,2 B,,^C, | D,2 D,,4 | (G,,4 D,,2 | E,,4 B,,,2 | C,,2) A,,,2 D,,2 | G,,,2 G,,2 z2 | %47
!mf! [D,C]4 [D,C]2 | [D,B,]4 z2 | [D,F,D]4 [D,F,D]2 | [D,G,D]4 z2 | (G,2 ^D,4 | E,2 B,,4 | %53
 C,2)!>(! E,2 F,2 | G,,2!>)! G,,,2 |] %55
V:4
 x6 | x4 |: x2 | (G,,4 D,2 | E,,4 B,,2) | x6 | x6 | x6 | x6 | x6 | x4 :: x2 | x6 | x6 | x6 | x6 | %16
 x6 | x6 | x6 | x4 :: x2 | x6 | x6 | x6 | x6 | x6 | x6 | x6 | x4 :: x2 | x6 | x6 | x6 | x6 | x6 | %35
 x6 | x6 | x6 :| x2 | x6 | x6 | x6 | x6 | x6 | x6 | x6 | x6 | x6 | x6 | x6 | x6 | x6 | x6 | x6 | %54
 x4 |] %55
V:5
 x6 | x4 |: x2 | x6 | x6 | x6 | x6 | x6 | x6 | x6 | x4 :: x2 | x6 | x6 | [D,,C,]4 [D,,C,]2 | %15
 [D,,B,,]4 z2 | x6 | x6 | x2 A,,2 D,2 | x4 :: x2 | x6 | x6 | x6 | x6 | x6 | x6 | A,4 z2 | x4 :: %29
 x2 | x6 | x6 | x6 | x6 | x6 | x6 | x6 | x6 :| x2 | x6 | x6 | x6 | x6 | x6 | x6 | x6 | x6 | x6 | %48
 x6 | [D,,C,]4 [D,,C,]2 | [D,,B,,]4 z2 | x6 | x6 | x2 A,,2 D,2 | x4 |] %55
V:6
 x6 | x4 |: x2 | x6 | x6 | x6 | x6 | x6 | x6 | x6 | x4 :: x2 | x6 | x6 | x6 | x6 | x6 | x6 | x6 | %19
 x4 :: x2 | x6 | x6 | x6 | x6 | x6 | x6 | x4 [DFc]2 | [GB]4 :: x2 | x6 | x6 | x6 | x6 | x6 | x6 | %36
 x6 | x6 :| x2 | x6 | x6 | x6 | x6 | x6 | x6 | x6 | x6 | x6 | x6 | x6 | x6 | x6 | x6 | x6 | x4 |] %55
V:7
 x6 | x4 |: x2 | x6 | x6 | x6 | x6 | x6 | x6 | x6 | x4 :: x2 | x6 | x6 | x6 | x6 | x6 | x6 | x6 | %19
 x4 :: x2 | x6 | x6 | x6 | x6 | x6 | x6 | x6 | x4 :: x2 | x6 | x6 | x6 | x6 | x6 | x6 | x6 | x6 :| %38
 x2 | x6 | x6 | x4 DE | x6 | D6 | B,6 | x6 | x6 | x6 | x6 | x6 | x6 | x6 | x6 | x6 | x4 |] %55

